packages/ndla-icons/svg/common/BlocksLight.svg

<?xml version="1.0" encoding="UTF-8"?>
<svg xmlns="http://www.w3.org/2000/svg" data-license="CC-BY 4.0" data-source="Labs." viewBox="0 0 243 282">
  <g fill="none" fill-rule="evenodd">
    <path fill="#E7D2FC" d="m121.4 2.8 119.1 68.5v69.8l-59.2 34.1-59.9-34.1V71.6L62.3 37.9z"/>
    <path d="M180.2 173.7v-67.3M62.3 173.9l58-33.5V72.8l-58 33.5zm60-33.3v.1h.1zm56.5 34.6-57.4-33.1-57.3 33.1 57.3 33.1zm3.4-68.8v66.9l57.1-33V73.4zm-120.9-1.8 57.8-33.4-57.3-33.1L4 71.5zm178 105.7v-67.7l-117 67.5v67.7zm-179-104L3.4 73.5v136.8l56.9 32.8zm60 103.7-58-33.5v67.8l58 33.4z"/>
    <path fill="#FFF" fill-rule="nonzero" d="m121.9.5-.5-.3L.9 69.8l-.5.3v142l120.4 69.4.5.3 120.5-69.5.5-.3V70L121.9.5Zm-2.6 210.1v65.5l-56-32.3v-65.5l56 32.3Zm-2.1-139.4-55.9 32.2L6 71.5l55.8-32.2 55.4 31.9Zm63.9 32.3L65.8 36.9l55.6-32 115.3 66.5-55.6 32.1Zm57.2 40.9v65.4l-115 66.2v-65.3l115-66.3Zm-117-1.1 55.4 31.9-55.3 31.9L66 175.2l55.3-31.9Zm57.9-36.3v65l-55.9-32.2v-65l55.9 32.2Zm-59.9-32.5v65.3l-56 32.3v-65.3l56-32.3Zm63.9 97.1V107l55.1-31.8v64.6l-55.1 31.8ZM59.3 106.9v134.5L4.4 209.8V75.2l54.9 31.7Z"/>
  </g>
</svg>

<?xml version="1.0" encoding="UTF-8"?>
<svg width="243px" height="282px" viewBox="0 0 243 282" version="1.1" data-license="CC-BY 4.0" data-source="Labs." xmlns="http://www.w3.org/2000/svg">
    <g id="Symbols" stroke="none" stroke-width="1" fill="none" fill-rule="evenodd">
        <g id="Fagfornyelsen-til-mørk-bakgrunn">
            <g id="NY-Fagfornyelsen-IKON-til-mørk-bakgrunn">
                <polygon id="Rectangle-Copy-29" fill="#E7D2FC" points="121.4 2.8 240.5 71.3 240.5 141.1 181.3 175.2 121.4 141.1 121.4 71.6 62.3 37.9"></polygon>
                <g id="Group-Copy-10">
                    <line x1="180.2" y1="173.7" x2="180.2" y2="106.4" id="Path"></line>
                    <polygon id="Path_1_" points="62.3 173.9 120.3 140.4 120.3 72.8 62.3 106.3"></polygon>
                    <polygon id="Path_2_" points="122.3 140.6 122.3 140.7 122.4 140.7"></polygon>
                    <polygon id="Path_3_" points="178.8 175.2 121.4 142.1 64.1 175.2 121.4 208.3"></polygon>
                    <polygon id="Path_4_" points="182.2 106.4 182.2 173.3 239.3 140.3 239.3 73.4"></polygon>
                    <polygon id="Path_5_" points="61.3 104.6 119.1 71.2 61.8 38.1 4 71.5"></polygon>
                    <polygon id="Path_6_" points="239.3 210.3 239.3 142.6 122.3 210.1 122.3 277.8"></polygon>
                    <polygon id="Path_7_" points="60.3 106.3 3.4 73.5 3.4 210.3 60.3 243.1"></polygon>
                    <polygon id="Path_8_" points="120.3 210 62.3 176.5 62.3 244.3 120.3 277.7"></polygon>
                    <path d="M121.9,0.5 L121.4,0.2 L0.9,69.8 L0.4,70.1 L0.4,212.1 L120.8,281.5 L121.3,281.8 L241.8,212.3 L242.3,212 L242.3,70 L121.9,0.5 Z M119.3,210.6 L119.3,276.1 L63.3,243.8 L63.3,178.3 L119.3,210.6 Z M117.2,71.2 L61.3,103.4 L6,71.5 L61.8,39.3 L117.2,71.2 Z M181.1,103.5 L65.8,36.9 L121.4,4.9 L236.7,71.4 L181.1,103.5 Z M238.3,144.4 L238.3,209.8 L123.3,276 L123.3,210.7 L238.3,144.4 Z M121.3,143.3 L176.7,175.2 L121.4,207.1 L66,175.2 L121.3,143.3 Z M179.2,107 L179.2,172 L123.3,139.8 L123.3,74.8 L179.2,107 Z M119.3,74.5 L119.3,139.8 L63.3,172.1 L63.3,106.8 L119.3,74.5 Z M183.2,171.6 L183.2,107 L238.3,75.2 L238.3,139.8 L183.2,171.6 Z M59.3,106.9 L59.3,241.4 L4.4,209.8 L4.4,75.2 L59.3,106.9 Z" id="Shape" fill="#FFFFFF" fill-rule="nonzero"></path>
                </g>
            </g>
        </g>
    </g>
</svg>
